public/svg/149.svg

<svg width="900" height="600" viewBox="0 0 900 600" fill="none" xmlns="http://www.w3.org/2000/svg"><path fill="transparent" d="M0 0h900v600H0z"/><path fill-rule="evenodd" clip-rule="evenodd" d="M667.211 303.134c0 48.469-24.718 91.351-63.068 119.386-2.726 1.994-4.406 5.134-4.404 8.511.005 11.102-.01 24.324-.018 38.454-.004 7.573-7.959 12.512-14.746 9.154l-48.381-23.937c-1.998-.988-4.263-1.287-6.46-.906a185.134 185.134 0 0 1-31.661 2.739c-92.843 0-168.737-68.302-168.737-153.401 0-85.1 75.894-153.401 168.737-153.401 92.843 0 168.738 68.301 168.738 153.401z" fill="#E1E4E5"/><path fill-rule="evenodd" clip-rule="evenodd" d="M247.924 303.134c0 48.469 24.718 91.351 63.068 119.386 2.726 1.994 4.406 5.134 4.404 8.511-.005 11.102.01 24.324.018 38.454.004 7.573 7.959 12.512 14.746 9.154l48.381-23.937c1.998-.988 4.263-1.287 6.46-.906a185.134 185.134 0 0 0 31.661 2.739c92.843 0 168.737-68.302 168.737-153.401 0-85.1-75.894-153.401-168.737-153.401-92.843 0-168.738 68.301-168.738 153.401z" fill="url(#a)"/><path fill-rule="evenodd" clip-rule="evenodd" d="M247.924 303.134c0 48.469 24.718 91.351 63.068 119.386 2.726 1.994 4.406 5.134 4.404 8.511-.005 11.102.01 24.324.018 38.454.004 7.573 7.959 12.512 14.746 9.154l48.381-23.937c1.998-.988 4.263-1.287 6.46-.906a185.134 185.134 0 0 0 31.661 2.739c92.843 0 168.737-68.302 168.737-153.401 0-85.1-75.894-153.401-168.737-153.401-92.843 0-168.738 68.301-168.738 153.401z" fill="#fd7600"/><path fill-rule="evenodd" clip-rule="evenodd" d="m400.991 249.944 66.754 38.736c9.611 5.575 9.611 19.225 0 24.82l-66.754 38.736c-9.799 5.678-22.167-1.25-22.167-12.399v-77.473c0-11.19 12.368-18.117 22.167-12.42z" fill="#fff"/><path d="M222.46 420.341c-13.252 3.139-27.267-8.099-27.267-8.099s7.479-16.322 20.735-19.452c13.251-3.139 27.262 8.089 27.262 8.089s-7.479 16.322-20.73 19.462z" fill="url(#b)"/><path d="M232.853 160.947c20.155 13.882 50.945 4.178 50.945 4.178s-1.906-32.208-22.074-46.077c-20.155-13.882-50.932-4.191-50.932-4.191s1.907 32.208 22.061 46.09z" fill="url(#c)"/><path d="M686.193 157.467c-12.038 12.253-34.55 9.669-34.55 9.669s-2.979-22.449 9.07-34.695c12.039-12.252 34.54-9.677 34.54-9.677s2.979 22.45-9.06 34.703z" fill="url(#d)"/><circle cx="741.523" cy="481.559" r="10.343" transform="rotate(180 741.523 481.559)" fill="#fd7600"/><ellipse cx="300.593" cy="498.582" rx="11.453" ry="10.88" transform="rotate(180 300.593 498.582)" fill="#fd7600"/><circle r="14.826" transform="matrix(-1 0 0 1 720.097 229.895)" fill="#fd7600"/><ellipse rx="10.307" ry="9.735" transform="matrix(-1 0 0 1 437.52 497.437)" fill="#E1E4E5"/><circle r="8.274" transform="matrix(-1 0 0 1 127.173 422.619)" fill="#E1E4E5"/><circle r="4.942" transform="matrix(-1 0 0 1 515.617 496.765)" fill="#E1E4E5"/><circle r="7.06" transform="matrix(-1 0 0 1 513.613 116.607)" fill="#E1E4E5"/><circle r="6.899" transform="scale(1 -1) rotate(-75 -226.319 -363.34)" fill="#E1E4E5"/><circle r="9.178" transform="matrix(-1 0 0 1 204.552 231.038)" fill="#E1E4E5"/><ellipse rx="7.06" ry="5.648" transform="matrix(-1 0 0 1 774.94 321.935)" fill="#E1E4E5"/><circle r="14.358" transform="scale(1 -1) rotate(-75 47.308 -646.07)" fill="#E1E4E5"/><path d="M706.432 298.674h.184c1.094 15.495 12.618 15.734 12.618 15.734s-12.708.248-12.708 18.153c0-17.905-12.707-18.153-12.707-18.153s11.519-.239 12.613-15.734zM347.827 103.365h.18c1.068 15.765 12.324 16.008 12.324 16.008s-12.412.252-12.412 18.468c0-18.216-12.411-18.468-12.411-18.468s11.251-.243 12.319-16.008zM135.565 315.626h.181c1.068 15.765 12.323 16.008 12.323 16.008s-12.411.252-12.411 18.468c0-18.216-12.412-18.468-12.412-18.468s11.251-.243 12.319-16.008zM764.319 163h.18c1.069 15.765 12.324 16.008 12.324 16.008s-12.412.252-12.412 18.468c0-18.216-12.411-18.468-12.411-18.468s11.251-.243 12.319-16.008zM204.578 285.745h.135c.798 11.779 9.208 11.96 9.208 11.96s-9.273.189-9.273 13.8c0-13.611-9.274-13.8-9.274-13.8s8.406-.181 9.204-11.96z" fill="#E1E4E5"/><defs><linearGradient id="a" x1="416.662" y1="149.733" x2="416.662" y2="485.932" gradientUnits="userSpaceOnUse"><stop stop-color="#8B6EE7"/><stop offset="1" stop-color="#5C30D6"/></linearGradient><linearGradient id="b" x1="172.558" y1="428.146" x2="288.561" y2="373.342" gradientUnits="userSpaceOnUse"><stop stop-color="#fff"/><stop offset="1" stop-color="#EEE"/></linearGradient><linearGradient id="c" x1="311.363" y1="206.496" x2="152.713" y2="39.203" gradientUnits="userSpaceOnUse"><stop stop-color="#fff"/><stop offset="1" stop-color="#EEE"/></linearGradient><linearGradient id="d" x1="638.161" y1="199.32" x2="725.194" y2="62.889" gradientUnits="userSpaceOnUse"><stop stop-color="#fff"/><stop offset="1" stop-color="#EEE"/></linearGradient></defs></svg>

<svg width="900" height="600" viewBox="0 0 900 600" fill="none" xmlns="http://www.w3.org/2000/svg">
<g clip-path="url(#clip0_98_1582)">
<path fill-rule="evenodd" clip-rule="evenodd" d="M667.211 303.134C667.211 351.603 642.493 394.485 604.143 422.52C601.417 424.514 599.737 427.654 599.739 431.031C599.744 442.133 599.729 455.355 599.721 469.485C599.717 477.058 591.762 481.997 584.975 478.639L536.594 454.702C534.596 453.714 532.331 453.415 530.134 453.796C519.678 455.615 509.086 456.531 498.473 456.535C405.63 456.535 329.736 388.233 329.736 303.134C329.736 218.034 405.63 149.733 498.473 149.733C591.316 149.733 667.211 218.034 667.211 303.134V303.134Z" fill="#F8F8F8"/>
<path fill-rule="evenodd" clip-rule="evenodd" d="M247.924 303.134C247.924 351.603 272.642 394.485 310.992 422.52C313.718 424.514 315.398 427.654 315.396 431.031C315.391 442.133 315.406 455.355 315.414 469.485C315.418 477.058 323.373 481.997 330.16 478.639L378.541 454.702C380.539 453.714 382.804 453.415 385.001 453.796C395.457 455.615 406.049 456.531 416.662 456.535C509.505 456.535 585.399 388.233 585.399 303.134C585.399 218.034 509.505 149.733 416.662 149.733C323.819 149.733 247.924 218.034 247.924 303.134V303.134Z" fill="url(#paint0_linear_98_1582)"/>
<path fill-rule="evenodd" clip-rule="evenodd" d="M247.924 303.134C247.924 351.603 272.642 394.485 310.992 422.52C313.718 424.514 315.398 427.654 315.396 431.031C315.391 442.133 315.406 455.355 315.414 469.485C315.418 477.058 323.373 481.997 330.16 478.639L378.541 454.702C380.539 453.714 382.804 453.415 385.001 453.796C395.457 455.615 406.049 456.531 416.662 456.535C509.505 456.535 585.399 388.233 585.399 303.134C585.399 218.034 509.505 149.733 416.662 149.733C323.819 149.733 247.924 218.034 247.924 303.134V303.134Z" fill="#FD7600"/>
<path fill-rule="evenodd" clip-rule="evenodd" d="M400.991 249.944L467.745 288.68C477.356 294.255 477.356 307.905 467.745 313.5L400.991 352.236C391.192 357.914 378.824 350.986 378.824 339.837V262.364C378.824 251.174 391.192 244.247 400.991 249.944Z" fill="white"/>
<path d="M222.46 420.341C209.208 423.48 195.193 412.242 195.193 412.242C195.193 412.242 202.672 395.92 215.928 392.79C229.179 389.651 243.19 400.879 243.19 400.879C243.19 400.879 235.711 417.201 222.46 420.341Z" fill="url(#paint1_linear_98_1582)"/>
<path d="M232.853 160.947C253.008 174.829 283.798 165.125 283.798 165.125C283.798 165.125 281.892 132.917 261.724 119.048C241.569 105.166 210.792 114.857 210.792 114.857C210.792 114.857 212.699 147.065 232.853 160.947V160.947Z" fill="url(#paint2_linear_98_1582)"/>
<path d="M686.193 157.467C674.155 169.72 651.643 167.136 651.643 167.136C651.643 167.136 648.664 144.687 660.713 132.441C672.752 120.189 695.253 122.764 695.253 122.764C695.253 122.764 698.232 145.214 686.193 157.467V157.467Z" fill="url(#paint3_linear_98_1582)"/>
<path d="M741.523 471.216C735.811 471.216 731.18 475.847 731.18 481.559C731.18 487.271 735.811 491.902 741.523 491.902C747.235 491.902 751.866 487.271 751.866 481.559C751.866 475.847 747.235 471.216 741.523 471.216Z" fill="#FD7600"/>
<path d="M300.593 487.702C294.268 487.702 289.14 492.573 289.14 498.582C289.14 504.591 294.268 509.462 300.593 509.462C306.918 509.462 312.046 504.591 312.046 498.582C312.046 492.573 306.918 487.702 300.593 487.702Z" fill="#FD7600"/>
<path d="M720.097 244.721C711.909 244.721 705.271 238.083 705.271 229.895C705.271 221.707 711.909 215.069 720.097 215.069C728.285 215.069 734.923 221.707 734.923 229.895C734.923 238.083 728.285 244.721 720.097 244.721Z" fill="#FD7600"/>
<path d="M437.52 507.172C431.828 507.172 427.213 502.814 427.213 497.437C427.213 492.061 431.828 487.702 437.52 487.702C443.212 487.702 447.827 492.061 447.827 497.437C447.827 502.814 443.212 507.172 437.52 507.172Z" fill="#F8F8F8"/>
<path d="M127.173 430.893C122.603 430.893 118.899 427.189 118.899 422.619C118.899 418.049 122.603 414.345 127.173 414.345C131.743 414.345 135.447 418.049 135.447 422.619C135.447 427.189 131.743 430.893 127.173 430.893Z" fill="#F8F8F8"/>
<path d="M515.617 501.707C512.888 501.707 510.675 499.494 510.675 496.765C510.675 494.036 512.888 491.823 515.617 491.823C518.346 491.823 520.559 494.036 520.559 496.765C520.559 499.494 518.346 501.707 515.617 501.707Z" fill="#F8F8F8"/>
<path d="M513.613 123.667C509.714 123.667 506.553 120.506 506.553 116.607C506.553 112.708 509.714 109.547 513.613 109.547C517.512 109.547 520.673 112.708 520.673 116.607C520.673 120.506 517.512 123.667 513.613 123.667Z" fill="#F8F8F8"/>
<path d="M189.88 486.123C190.866 489.803 188.682 493.586 185.002 494.572C181.321 495.558 177.538 493.374 176.552 489.694C175.566 486.013 177.75 482.23 181.431 481.244C185.111 480.258 188.894 482.442 189.88 486.123Z" fill="#F8F8F8"/>
<path d="M204.552 240.216C199.483 240.216 195.374 236.107 195.374 231.038C195.374 225.969 199.483 221.86 204.552 221.86C209.621 221.86 213.73 225.969 213.73 231.038C213.73 236.107 209.621 240.216 204.552 240.216Z" fill="#F8F8F8"/>
<path d="M774.94 327.583C771.041 327.583 767.88 325.054 767.88 321.935C767.88 318.816 771.041 316.287 774.94 316.287C778.839 316.287 782 318.816 782 321.935C782 325.054 778.839 327.583 774.94 327.583Z" fill="#F8F8F8"/>
<path d="M672.988 429.443C675.041 437.102 670.495 444.975 662.836 447.028C655.176 449.08 647.303 444.534 645.251 436.875C643.198 429.215 647.744 421.342 655.403 419.29C663.063 417.238 670.936 421.783 672.988 429.443Z" fill="#F8F8F8"/>
<path d="M706.432 298.674H706.616C707.71 314.169 719.234 314.408 719.234 314.408C719.234 314.408 706.526 314.656 706.526 332.561C706.526 314.656 693.819 314.408 693.819 314.408C693.819 314.408 705.338 314.169 706.432 298.674ZM347.827 103.365H348.007C349.075 119.13 360.331 119.373 360.331 119.373C360.331 119.373 347.919 119.625 347.919 137.841C347.919 119.625 335.508 119.373 335.508 119.373C335.508 119.373 346.759 119.13 347.827 103.365V103.365ZM135.565 315.626H135.746C136.814 331.391 148.069 331.634 148.069 331.634C148.069 331.634 135.658 331.886 135.658 350.102C135.658 331.886 123.246 331.634 123.246 331.634C123.246 331.634 134.497 331.391 135.565 315.626ZM764.319 163H764.499C765.568 178.765 776.823 179.008 776.823 179.008C776.823 179.008 764.411 179.26 764.411 197.476C764.411 179.26 752 179.008 752 179.008C752 179.008 763.251 178.765 764.319 163V163ZM204.578 285.745H204.713C205.511 297.524 213.921 297.705 213.921 297.705C213.921 297.705 204.648 297.894 204.648 311.505C204.648 297.894 195.374 297.705 195.374 297.705C195.374 297.705 203.78 297.524 204.578 285.745Z" fill="#F8F8F8"/>
</g>
<defs>
<linearGradient id="paint0_linear_98_1582" x1="416.662" y1="149.733" x2="416.662" y2="485.932" gradientUnits="userSpaceOnUse">
<stop stop-color="#8B6EE7"/>
<stop offset="1" stop-color="#5C30D6"/>
</linearGradient>
<linearGradient id="paint1_linear_98_1582" x1="172.558" y1="428.146" x2="288.561" y2="373.342" gradientUnits="userSpaceOnUse">
<stop stop-color="white"/>
<stop offset="1" stop-color="#EEEEEE"/>
</linearGradient>
<linearGradient id="paint2_linear_98_1582" x1="311.363" y1="206.496" x2="152.713" y2="39.2031" gradientUnits="userSpaceOnUse">
<stop stop-color="white"/>
<stop offset="1" stop-color="#EEEEEE"/>
</linearGradient>
<linearGradient id="paint3_linear_98_1582" x1="638.161" y1="199.32" x2="725.194" y2="62.8891" gradientUnits="userSpaceOnUse">
<stop stop-color="white"/>
<stop offset="1" stop-color="#EEEEEE"/>
</linearGradient>
<clipPath id="clip0_98_1582">
<rect width="900" height="600" fill="white"/>
</clipPath>
</defs>
</svg>
